usr/share/icons/biglinux-icons-material/22/actions/edit-reset.svg

<svg id="svg6" version="1.1" viewBox="0 0 22 22" xmlns="http://www.w3.org/2000/svg">
    <style id="current-color-scheme" type="text/css">.ColorScheme-Text {
            color:#dedede;
        }</style>
    <path id="path4" class="ColorScheme-Text" d="m9.300781 3-3.5 3.5 3.5 3.5 0.707031-0.707031-2.292969-2.292969h3.785154c3.047 0 5.5 2.453 5.5 5.5s-2.453 5.5-5.5 5.5h-1.5v1h1.5c3.601 0 6.5-2.899 6.5-6.5s-2.899-6.5-6.5-6.5h-3.785154l2.292969-2.292969-0.707031-0.707031" fill="currentColor"/>
    <rect id="rect837" class="ColorScheme-Text" x="4" y="3" width="1" height="7" fill="currentColor" fill-rule="evenodd"/>
</svg>

<svg xmlns="http://www.w3.org/2000/svg" id="svg6" version="1.1" viewBox="0 0 22 22"><style id="current-color-scheme" type="text/css">.ColorScheme-Text{color:#dedede}</style><path id="path4" fill="currentColor" d="M9.3 3 5.8 6.5 9.3 10l.708-.707L7.715 7H11.5c3.047 0 5.5 2.453 5.5 5.5S14.547 18 11.5 18H10v1h1.5c3.601 0 6.5-2.899 6.5-6.5S15.101 6 11.5 6H7.715l2.293-2.293L9.3 3" class="ColorScheme-Text"/><path id="rect837" fill="currentColor" fill-rule="evenodd" d="M4 3h1v7H4z" class="ColorScheme-Text"/></svg>
